!! Isochronous pitch passage.
!! Inner-voice line.
!! From Schumann, Symphony No. 2, 1st movement, Figure "I"
!! First violins
!! 3/4 meter
**kern	**metpos
*M3/4	*M3/4
*tb16	*tb16
=1	=1
16r	1
16r	4
16g	3
16g	4
16c	2
16c	4
16b	3
16b	4
16a	2
16a	4
16g	3
16g	4
=2	=2
16f#	1
16f#	4
16a	3
16a	4
16dd	2
16dd	4
16f#	3
16f#	4
16g	2
16g	4
16dd	3
16dd	4
=3	=3
16g#	1
16g#	4
16ee	3
16ee	4
16a	2
16a	4
16cc	3
16cc	4
16ee	2
16ee	4
16gn	3
16g	4
=4	=4
16f#	1
16f#	4
16a	3
16a	4
16dd	2
16dd	4
16f#	3
16f#	4
16g	2
16g	4
16dd	3
16dd	4
=5	=5
16g#	1
16g#	4
16ee	3
16ee	4
16a	2
16a	4
16cc	3
16cc	4
16ee	2
16ee	4
16gn	3
16g	4
=6	=6
16f#	1
16f#	4
16a	3
16a	4
16dd	2
16dd	4
16f#	3
16f#	4
16g	2
16g	4
16ee	3
16ee	4
=7	=7
16f#	1
16f#	4
16a	3
16a	4
16dd	2
16dd	4
16f#	3
16f#	4
16a	2
16a	4
16ffn	3
16ff	4
=8	=8
16g#	1
16g#	4
16b	3
16b	4
16ee	2
16ee	4
16g#	3
16g#	4
16a	2
16a	4
16ff	3
16ff	4
=9	=9
16g#	1
16g#	4
16b	3
16b	4
16ee	2
16ee	4
16g#	3
16g#	4
16a	2
16a	4
16ff	3
16ff	4
=10	=10
16g#	1
16g#	4
16b	3
16b	4
16ee	2
16ee	4
16g#	3
16g#	4
16b-	2
16b-	4
16ggn	3
16ggn	4
=11	=11
16a	1
16a	4
16ccn	3
16cc	4
16ff#	2
16ff#	4
16a	3
16a	4
16a-	2
16a-	4
16ffn	3
16ff	4
=12	=12
16g	1
16g	4
16cc	3
16cc	4
16ee	2
16ee	4
16g	3
16g	4
16b-	2
16b-	4
16gg	3
16gg	4
=13	=13
16a	1
16a	4
16cc	3
16cc	4
16ff#	2
16ff#	4
16a	3
16a	4
16a-	2
16a-	4
16ffn	3
16ff	4
=14	=14
16g	1
16g	4
16cc	3
16cc	4
16ee	2
16ee	4
16g	3
16g	4
16g-	2
16g-	4
16ee-	3
16ee-	4
=15	=15
16f	1
16f	4
16a-	3
16a-	4
16dd-	2
16dd-	4
16ff	3
16ff	4
16gg-	2
16gg-	4
16g-	3
16g-	4
=16	=16
16f	1
16f	4
16a-	3
16a-	4
16dd-	2
16dd-	4
16ff	3
16ff	4
16ff#	2
16ff#	4
16f#	3
16f#	4
=17	=17
16g	1
16g	4
16an	3
16a	4
16g	2
16g	4
16a	3
16a	4
16b	2
16b	4
16cc	3
16cc	4
=18	=18
16dd	1
16dd	4
16ee	3
16ee	4
16ff	2
16ff	4
16ff#	3
16ff#	4
16gg	2
16gg	4
16g	3
16g	4
=19	=19
16g	1
16g	4
16a	3
16a	4
16g	2
16g	4
16a	3
16a	4
16b	2
16b	4
16cc	3
16cc	4
=20	=20
16dd	1
16dd	4
16ee	3
16ee	4
16ff	2
16ff	4
16gg	3
16gg	4
16aa-	2
16aa-	4
16g	3
16g	4
=21	=21
*-	*-
